; G-Code generated by Simplify3D(R) Version 4.0.1
; Jul 31, 2024 at 3:39:35 AM
; Settings Summary
;   processName,Process1
;   applyToModels,RABIT v1.1 definitive
;   profileName,anhanguera-config (modified)
;   profileVersion,2024-07-31 03:30:24
;   baseProfile,AiP
;   printMaterial,PLA
;   printQuality,Layer 0,2mm
;   printExtruders,
;   extruderName,Primary Extruder
;   extruderToolheadNumber,0
;   extruderDiameter,0.4
;   extruderAutoWidth,1
;   extruderWidth,0.48
;   extrusionMultiplier,1
;   extruderUseRetract,1
;   extruderRetractionDistance,1.5
;   extruderExtraRestartDistance,0
;   extruderRetractionZLift,0
;   extruderRetractionSpeed,3600
;   extruderUseCoasting,0
;   extruderCoastingDistance,0.2
;   extruderUseWipe,0
;   extruderWipeDistance,5
;   primaryExtruder,0
;   layerHeight,0.2
;   topSolidLayers,5
;   bottomSolidLayers,5
;   perimeterOutlines,3
;   printPerimetersInsideOut,1
;   startPointOption,2
;   startPointOriginX,135
;   startPointOriginY,0
;   sequentialIslands,0
;   spiralVaseMode,0
;   firstLayerHeightPercentage,150
;   firstLayerWidthPercentage,100
;   firstLayerUnderspeed,0.6
;   useRaft,1
;   raftExtruder,0
;   raftTopLayers,3
;   raftBaseLayers,2
;   raftOffset,3
;   raftSeparationDistance,0.14
;   raftTopInfill,100
;   aboveRaftSpeedMultiplier,0.3
;   useSkirt,1
;   skirtExtruder,0
;   skirtLayers,1
;   skirtOutlines,8
;   skirtOffset,9
;   usePrimePillar,0
;   primePillarExtruder,999
;   primePillarWidth,12
;   primePillarLocation,7
;   primePillarSpeedMultiplier,1
;   useOozeShield,0
;   oozeShieldExtruder,999
;   oozeShieldOffset,2
;   oozeShieldOutlines,1
;   oozeShieldSidewallShape,1
;   oozeShieldSidewallAngle,30
;   oozeShieldSpeedMultiplier,1
;   infillExtruder,0
;   internalInfillPattern,Full Honeycomb
;   externalInfillPattern,Rectilinear
;   infillPercentage,50
;   outlineOverlapPercentage,20
;   infillExtrusionWidthPercentage,100
;   minInfillLength,3
;   infillLayerInterval,1
;   internalInfillAngles,0,120,-120
;   overlapInternalInfillAngles,0
;   externalInfillAngles,45,-45
;   generateSupport,1
;   supportExtruder,0
;   supportInfillPercentage,30
;   supportExtraInflation,0
;   supportBaseLayers,0
;   denseSupportExtruder,0
;   denseSupportLayers,8
;   denseSupportInfillPercentage,85
;   supportLayerInterval,1
;   supportHorizontalPartOffset,0.6
;   supportUpperSeparationLayers,1
;   supportLowerSeparationLayers,1
;   supportType,0
;   supportGridSpacing,1
;   maxOverhangAngle,45
;   supportAngles,45
;   temperatureName,Heated Bed,Primary Extruder
;   temperatureNumber,0,0
;   temperatureSetpointCount,1,1
;   temperatureSetpointLayers,1,1
;   temperatureSetpointTemperatures,65,210
;   temperatureStabilizeAtStartup,1,0
;   temperatureHeatedBed,1,0
;   temperatureRelayBetweenLayers,0,0
;   temperatureRelayBetweenLoops,0,0
;   fanLayers,1,2
;   fanSpeeds,0,50
;   blipFanToFullPower,1
;   adjustSpeedForCooling,1
;   minSpeedLayerTime,25
;   minCoolingSpeedSlowdown,20
;   increaseFanForCooling,1
;   minFanLayerTime,12
;   maxCoolingFanSpeed,100
;   increaseFanForBridging,1
;   bridgingFanSpeed,100
;   use5D,1
;   relativeEdistances,0
;   allowEaxisZeroing,1
;   independentExtruderAxes,0
;   includeM10123,0
;   stickySupport,1
;   applyToolheadOffsets,0
;   gcodeXoffset,0
;   gcodeYoffset,0
;   gcodeZoffset,0
;   overrideMachineDefinition,1
;   machineTypeOverride,0
;   strokeXoverride,200
;   strokeYoverride,200
;   strokeZoverride,200
;   originOffsetXoverride,0
;   originOffsetYoverride,0
;   originOffsetZoverride,0
;   homeXdirOverride,1
;   homeYdirOverride,0
;   homeZdirOverride,1
;   flipXoverride,1
;   flipYoverride,-1
;   flipZoverride,1
;   toolheadOffsets,0,0|0,0|0,0|0,0|0,0|0,0
;   overrideFirmwareConfiguration,0
;   firmwareTypeOverride,RepRap (Marlin/Repetier/Sprinter)
;   GPXconfigOverride,r2
;   baudRateOverride,115200
;   overridePrinterModels,0
;   printerModelsOverride
;   startingGcode,M82,M190 S[bed0_temperature] T0,M104 S[extruder0_temperature] T0,,G28 ,G90,G1 Z5 F210,G32 S1,,M109 S[extruder0_temperature] T0,,G92 E0,M120 P20 S50
;   layerChangeGcode,
;   retractionGcode,
;   toolChangeGcode,
;   endingGcode,; Default end code,M106 S0 ; Turn off fan,,M104 S0,M140 S0,,G1 X0 Y210 F4000,,M84,M120 P20 S100
;   exportFileFormat,gcode
;   celebration,0
;   celebrationSong,Star Wars
;   postProcessing,
;   defaultSpeed,3600
;   outlineUnderspeed,0.45
;   solidInfillUnderspeed,0.6
;   supportUnderspeed,0.6
;   rapidXYspeed,4200
;   rapidZspeed,1002
;   minBridgingArea,50
;   bridgingExtraInflation,0
;   bridgingExtrusionMultiplier,1
;   bridgingSpeedMultiplier,0.5
;   useFixedBridgingAngle,0
;   fixedBridgingAngle,0
;   applyBridgingToPerimeters,0
;   filamentDiameters,1.75|1.75|1.75|1.75|1.75|1.75
;   filamentPricesPerKg,140|140|140|140|140|140
;   filamentDensities,1.24|1.24|1.24|1.24|1.24|1.24
;   useMinPrintHeight,0
;   minPrintHeight,0
;   useMaxPrintHeight,0
;   maxPrintHeight,0
;   useDiaphragm,0
;   diaphragmLayerInterval,20
;   robustSlicing,1
;   mergeAllIntoSolid,0
;   onlyRetractWhenCrossingOutline,1
;   retractBetweenLayers,0
;   useRetractionMinTravel,1
;   retractionMinTravel,3
;   retractWhileWiping,1
;   onlyWipeOutlines,1
;   avoidCrossingOutline,0
;   maxMovementDetourFactor,3
;   toolChangeRetractionDistance,12
;   toolChangeExtraRestartDistance,-0.5
;   toolChangeRetractionSpeed,200.1
;   externalThinWallType,1
;   internalThinWallType,1
;   thinWallAllowedOverlapPercentage,30
;   singleExtrusionMinLength,1
;   singleExtrusionMinPrintingWidthPercentage,50
;   singleExtrusionMaxPrintingWidthPercentage,200
;   singleExtrusionEndpointExtension,0.2
;   horizontalSizeCompensation,0
G90
M82
M106 S255
G4 P500
M106 S0
M82
M190 S65 T0
M104 S210 T0
G28 
G90
G1 Z5 F210
G32 S1
M109 S210 T0
G92 E0
M120 P20 S50
G92 E0
G1 E-1.5000 F3600
G1 Z0.750 F1002
; process Process1
; layer 1, Z = 0.750
T0
; tool H0.750 W0.480
; skirt
G1 X46.489 Y27.786 F4200
G1 E0.0000 F1080
G92 E0
G1 X47.243 Y26.658 E0.2030 F2160
G1 X47.348 Y26.516 E0.2294
G1 X48.457 Y25.165 E0.4910
G1 X48.576 Y25.034 E0.5175
G1 X49.534 Y24.076 E0.7204
G1 X49.665 Y23.957 E0.7468
G1 X51.016 Y22.848 E1.0084
G1 X51.158 Y22.743 E1.0349
G1 X52.286 Y21.989 E1.2379
G1 X52.437 Y21.898 E1.2643
G1 X53.979 Y21.075 E1.5259
G1 X54.139 Y20.999 E1.5524
G1 X55.391 Y20.480 E1.7552
G1 X55.557 Y20.421 E1.7817
G1 X57.230 Y19.913 E2.0433
G1 X57.401 Y19.870 E2.0698
G1 X58.731 Y19.606 E2.2727
G1 X58.906 Y19.580 E2.2992
G1 X60.303 Y19.442 E2.5093
G1 X60.392 Y19.436 E2.5225
G1 X61.068 Y19.403 E2.6239
G1 X61.156 Y19.400 E2.6371
G1 X138.839 Y19.400 E14.2639
G1 X138.927 Y19.402 E14.2771
G1 X139.604 Y19.435 E14.3785
G1 X139.692 Y19.442 E14.3917
G1 X141.094 Y19.580 E14.6026
G1 X141.269 Y19.606 E14.6290
G1 X142.599 Y19.870 E14.8320
G1 X142.770 Y19.913 E14.8585
G1 X144.443 Y20.421 E15.1201
G1 X144.609 Y20.480 E15.1465
G1 X145.861 Y20.999 E15.3494
G1 X146.021 Y21.075 E15.3758
G1 X147.562 Y21.898 E15.6374
G1 X147.714 Y21.989 E15.6639
G1 X148.842 Y22.743 E15.8668
G1 X148.984 Y22.848 E15.8933
G1 X150.335 Y23.957 E16.1549
G1 X150.466 Y24.076 E16.1814
G1 X151.425 Y25.035 E16.3843
G1 X151.543 Y25.165 E16.4108
G1 X152.652 Y26.516 E16.6724
G1 X152.757 Y26.658 E16.6988
G1 X153.510 Y27.785 E16.9017
G1 X153.601 Y27.937 E16.9281
G1 X154.425 Y29.478 E17.1897
G1 X154.501 Y29.638 E17.2162
G1 X155.020 Y30.891 E17.4191
G1 X155.079 Y31.057 E17.4456
G1 X155.587 Y32.730 E17.7072
G1 X155.630 Y32.902 E17.7337
G1 X155.894 Y34.232 E17.9367
G1 X155.920 Y34.407 E17.9631
G1 X156.058 Y35.804 E18.1732
G1 X156.064 Y35.892 E18.1865
G1 X156.097 Y36.568 E18.2878
G1 X156.100 Y36.656 E18.3010
G1 X156.100 Y77.339 E24.3899
G1 X156.098 Y77.427 E24.4032
G1 X156.065 Y78.104 E24.5046
G1 X156.058 Y78.192 E24.5178
G1 X155.920 Y79.594 E24.7287
G1 X155.894 Y79.769 E24.7551
G1 X155.630 Y81.098 E24.9581
G1 X155.587 Y81.270 E24.9845
G1 X155.079 Y82.943 E25.2461
G1 X155.020 Y83.109 E25.2726
G1 X154.501 Y84.362 E25.4755
G1 X154.425 Y84.522 E25.5020
G1 X153.601 Y86.063 E25.7636
G1 X153.510 Y86.215 E25.7900
G1 X152.757 Y87.342 E25.9929
G1 X152.652 Y87.484 E26.0193
G1 X151.543 Y88.835 E26.2809
G1 X151.425 Y88.965 E26.3074
G1 X150.466 Y89.924 E26.5103
G1 X150.335 Y90.043 E26.5368
G1 X148.984 Y91.152 E26.7984
G1 X148.842 Y91.257 E26.8249
G1 X147.714 Y92.011 E27.0278
G1 X147.562 Y92.102 E27.0543
G1 X146.021 Y92.925 E27.3159
G1 X145.861 Y93.001 E27.3424
G1 X144.609 Y93.520 E27.5453
G1 X144.442 Y93.579 E27.5717
G1 X142.770 Y94.087 E27.8333
G1 X142.598 Y94.130 E27.8597
G1 X141.269 Y94.394 E28.0627
G1 X141.094 Y94.420 E28.0891
G1 X139.697 Y94.558 E28.2992
G1 X139.609 Y94.564 E28.3124
G1 X138.932 Y94.597 E28.4138
G1 X138.844 Y94.600 E28.4271
G1 X61.161 Y94.600 E40.0539
G1 X61.073 Y94.598 E40.0671
G1 X60.396 Y94.565 E40.1685
G1 X60.308 Y94.558 E40.1817
G1 X58.906 Y94.420 E40.3926
G1 X58.731 Y94.394 E40.4191
G1 X57.401 Y94.130 E40.6220
G1 X57.230 Y94.087 E40.6484
G1 X55.558 Y93.579 E40.9100
G1 X55.391 Y93.520 E40.9364
G1 X54.139 Y93.001 E41.1393
G1 X53.979 Y92.925 E41.1658
G1 X52.437 Y92.102 E41.4274
G1 X52.286 Y92.011 E41.4538
G1 X51.158 Y91.257 E41.6568
G1 X51.016 Y91.152 E41.6833
G1 X49.665 Y90.043 E41.9449
G1 X49.534 Y89.924 E41.9713
G1 X48.576 Y88.966 E42.1742
G1 X48.457 Y88.835 E42.2007
G1 X47.348 Y87.484 E42.4623
G1 X47.243 Y87.342 E42.4887
G1 X46.489 Y86.214 E42.6917
G1 X46.398 Y86.063 E42.7182
G1 X45.575 Y84.521 E42.9798
G1 X45.499 Y84.361 E43.0062
G1 X44.980 Y83.109 E43.2091
G1 X44.921 Y82.943 E43.2355
G1 X44.413 Y81.270 E43.4971
G1 X44.370 Y81.099 E43.5236
G1 X44.106 Y79.769 E43.7266
G1 X44.080 Y79.594 E43.7530
G1 X43.942 Y78.197 E43.9632
G1 X43.936 Y78.108 E43.9764
G1 X43.903 Y77.432 E44.0778
G1 X43.900 Y77.344 E44.0910
G1 X43.900 Y36.656 E50.1806
G1 X43.903 Y36.568 E50.1939
G1 X43.936 Y35.892 E50.2952
G1 X43.942 Y35.803 E50.3085
G1 X44.080 Y34.406 E50.5186
G1 X44.106 Y34.231 E50.5451
G1 X44.370 Y32.901 E50.7480
G1 X44.413 Y32.730 E50.7745
G1 X44.921 Y31.057 E51.0361
G1 X44.980 Y30.891 E51.0625
G1 X45.499 Y29.639 E51.2654
G1 X45.575 Y29.479 E51.2918
G1 X46.398 Y27.937 E51.5534
G1 X46.489 Y27.786 E51.5799
G92 E0
G1 E-1.5000 F3600
G1 X59.732 Y109.606 F4200
G1 E0.0000 F3600
G92 E0
G1 X59.906 Y109.580 E0.0265 F2160
G1 X61.308 Y109.442 E0.2373
G1 X61.397 Y109.435 E0.2505
G1 X62.073 Y109.402 E0.3519
G1 X62.161 Y109.400 E0.3651
G1 X134.945 Y109.401 E11.2588
G1 X135.034 Y109.403 E11.2720
G1 X135.710 Y109.436 E11.3733
G1 X135.798 Y109.443 E11.3866
G1 X137.194 Y109.580 E11.5964
G1 X137.368 Y109.606 E11.6229
G1 X138.698 Y109.870 E11.8258
G1 X138.870 Y109.913 E11.8523
G1 X140.542 Y110.421 E12.1139
G1 X140.709 Y110.480 E12.1403
G1 X141.962 Y110.999 E12.3433
G1 X142.121 Y111.075 E12.3698
G1 X143.663 Y111.899 E12.6314
G1 X143.814 Y111.990 E12.6578
G1 X144.942 Y112.743 E12.8607
G1 X145.083 Y112.848 E12.8871
G1 X146.435 Y113.957 E13.1488
G1 X146.566 Y114.075 E13.1752
G1 X147.525 Y115.034 E13.3782
G1 X147.643 Y115.165 E13.4046
G1 X148.752 Y116.517 E13.6663
G1 X148.857 Y116.659 E13.6927
G1 X149.611 Y117.786 E13.8956
G1 X149.701 Y117.937 E13.9221
G1 X150.525 Y119.479 E14.1837
G1 X150.601 Y119.639 E14.2101
G1 X151.120 Y120.891 E14.4131
G1 X151.179 Y121.058 E14.4395
G1 X151.687 Y122.730 E14.7011
G1 X151.730 Y122.902 E14.7275
G1 X151.994 Y124.231 E14.9304
G1 X152.020 Y124.406 E14.9568
G1 X152.158 Y125.807 E15.1677
G1 X152.165 Y125.896 E15.1809
G1 X152.198 Y126.573 E15.2823
G1 X152.200 Y126.661 E15.2956
G1 X152.200 Y163.339 E20.7852
G1 X152.198 Y163.427 E20.7984
G1 X152.165 Y164.104 E20.8999
G1 X152.158 Y164.193 E20.9131
G1 X152.020 Y165.594 E21.1239
G1 X151.994 Y165.769 E21.1504
G1 X151.730 Y167.098 E21.3532
G1 X151.687 Y167.270 E21.3797
G1 X151.179 Y168.942 E21.6412
G1 X151.120 Y169.109 E21.6677
G1 X150.601 Y170.361 E21.8706
G1 X150.525 Y170.521 E21.8971
G1 X149.702 Y172.062 E22.1587
G1 X149.611 Y172.214 E22.1851
G1 X148.857 Y173.341 E22.3881
G1 X148.752 Y173.483 E22.4145
G1 X147.643 Y174.835 E22.6761
G1 X147.524 Y174.966 E22.7026
G1 X146.565 Y175.925 E22.9056
G1 X146.434 Y176.044 E22.9321
G1 X145.083 Y177.152 E23.1937
G1 X144.941 Y177.258 E23.2202
G1 X143.814 Y178.011 E23.4230
G1 X143.663 Y178.101 E23.4495
G1 X142.121 Y178.925 E23.7110
G1 X141.962 Y179.001 E23.7375
G1 X140.710 Y179.519 E23.9403
G1 X140.543 Y179.579 E23.9668
G1 X138.871 Y180.086 E24.2284
G1 X138.699 Y180.129 E24.2548
G1 X137.369 Y180.394 E24.4578
G1 X137.194 Y180.420 E24.4843
G1 X135.792 Y180.558 E24.6951
G1 X135.704 Y180.565 E24.7084
G1 X135.027 Y180.598 E24.8098
G1 X134.939 Y180.600 E24.8230
G1 X62.161 Y180.600 E35.7157
G1 X62.073 Y180.598 E35.7289
G1 X61.396 Y180.565 E35.8303
G1 X61.308 Y180.558 E35.8435
G1 X59.906 Y180.420 E36.0544
G1 X59.731 Y180.394 E36.0809
G1 X58.401 Y180.129 E36.2839
G1 X58.229 Y180.086 E36.3103
G1 X56.557 Y179.579 E36.5719
G1 X56.390 Y179.519 E36.5984
G1 X55.138 Y179.001 E36.8012
G1 X54.979 Y178.925 E36.8276
G1 X53.438 Y178.102 E37.0892
G1 X53.286 Y178.011 E37.1156
G1 X52.159 Y177.257 E37.3185
G1 X52.017 Y177.152 E37.3450
G1 X50.665 Y176.043 E37.6066
G1 X50.535 Y175.925 E37.6331
G1 X49.576 Y174.966 E37.8360
G1 X49.457 Y174.835 E37.8625
G1 X48.348 Y173.484 E38.1241
G1 X48.243 Y173.342 E38.1506
G1 X47.489 Y172.214 E38.3535
G1 X47.398 Y172.062 E38.3800
G1 X46.575 Y170.521 E38.6416
G1 X46.499 Y170.361 E38.6680
G1 X45.980 Y169.109 E38.8709
G1 X45.921 Y168.943 E38.8973
G1 X45.413 Y167.270 E39.1589
G1 X45.370 Y167.099 E39.1854
G1 X45.106 Y165.769 E39.3884
G1 X45.080 Y165.594 E39.4148
G1 X44.942 Y164.192 E39.6257
G1 X44.935 Y164.104 E39.6389
G1 X44.902 Y163.427 E39.7403
G1 X44.900 Y163.339 E39.7535
G1 X44.900 Y126.661 E45.2430
G1 X44.902 Y126.573 E45.2563
G1 X44.935 Y125.897 E45.3576
G1 X44.942 Y125.808 E45.3709
G1 X45.080 Y124.406 E45.5817
G1 X45.106 Y124.231 E45.6082
G1 X45.370 Y122.901 E45.8112
G1 X45.413 Y122.730 E45.8376
G1 X45.921 Y121.057 E46.0992
G1 X45.980 Y120.891 E46.1257
G1 X46.499 Y119.639 E46.3285
G1 X46.575 Y119.479 E46.3550
G1 X47.398 Y117.937 E46.6166
G1 X47.489 Y117.786 E46.6430
G1 X48.243 Y116.658 E46.8460
G1 X48.348 Y116.516 E46.8725
G1 X49.457 Y115.165 E47.1341
G1 X49.576 Y115.034 E47.1605
G1 X50.534 Y114.076 E47.3634
G1 X50.665 Y113.957 E47.3899
G1 X52.016 Y112.848 E47.6515
G1 X52.158 Y112.743 E47.6779
G1 X53.286 Y111.989 E47.8809
G1 X53.437 Y111.899 E47.9073
G1 X54.979 Y111.075 E48.1689
G1 X55.139 Y110.999 E48.1954
G1 X56.391 Y110.480 E48.3983
G1 X56.557 Y110.421 E48.4248
G1 X58.230 Y109.913 E48.6864
G1 X58.402 Y109.870 E48.7128
G1 X59.732 Y109.606 E48.9158
G1 X59.814 Y110.079 F4200
G92 E0
G1 X59.965 Y110.056 E0.0229 F2160
G1 X61.350 Y109.920 E0.2311
G1 X61.426 Y109.915 E0.2426
G1 X62.091 Y109.882 E0.3422
G1 X62.167 Y109.880 E0.3537
G1 X134.939 Y109.881 E11.2455
G1 X135.016 Y109.883 E11.2570
G1 X135.681 Y109.915 E11.3566
G1 X135.757 Y109.921 E11.3681
G1 X137.135 Y110.056 E11.5753
G1 X137.286 Y110.079 E11.5982
G1 X138.593 Y110.339 E11.7976
G1 X138.742 Y110.376 E11.8205
G1 X140.392 Y110.877 E12.0786
G1 X140.536 Y110.928 E12.1015
G1 X141.767 Y111.438 E12.3010
G1 X141.906 Y111.504 E12.3239
G1 X143.426 Y112.316 E12.5820
G1 X143.558 Y112.395 E12.6049
G1 X144.665 Y113.135 E12.8043
G1 X144.788 Y113.226 E12.8272
G1 X146.121 Y114.320 E13.0853
G1 X146.235 Y114.423 E13.1082
G1 X147.177 Y115.365 E13.3076
G1 X147.280 Y115.479 E13.3306
G1 X148.374 Y116.812 E13.5887
G1 X148.465 Y116.935 E13.6116
G1 X149.205 Y118.043 E13.8110
G1 X149.284 Y118.174 E13.8339
G1 X150.096 Y119.695 E14.0920
G1 X150.162 Y119.833 E14.1149
G1 X150.672 Y121.064 E14.3143
G1 X150.723 Y121.208 E14.3372
G1 X151.224 Y122.858 E14.5953
G1 X151.261 Y123.007 E14.6182
